X:1123
T:Joseph est bien marie,
C:French Air.
M:C
L:1/4
Q:1/4=104
I: :: ::
N:bar 4 is printed |{c}d2:| (with no sharp)
Z:Jack Campin * www.campin.me.uk * 2009
K:D Minor
Ad   |{d}^c{=B}A  d Te{de}| f2 gf   | ed{f}e{d}^c    |{^c}d2:|
aa/g/|    f    a Tg  f    |Ted aa/g/| fa   g    f    |    fe
Ad   |{d}^c{=B}A  d Te{de}| f2 gf   |Ted   f/e/`d/^c/|    d2:|
<end>
<start>
